X: 27806
T: Morrison's
R: jig
M: 6/8
K: Edorian
|:E3 B3|EBE AFD|E3 B3|dcB AFD|
E3 BEB|E3 AFD|G3 FGA|dAG FED:|
Bee fee|aee fed|Bee fee|a2g fed|
Bee fee|aee fed|gfe d2A|BAG FGA|
Bee fee|aee fed|Bee fee|faf def|
g3 gfe|def g2d|edc d2A|BAG FED|

